assets/img/braze_icons/bank-note-01.svg

<svg fill="none" height="24" viewBox="0 0 24 24" width="24" xmlns="http://www.w3.org/2000/svg"><g fill="#801ed7"><path d="m12 10.5c-.8284 0-1.5.6716-1.5 1.5s.6716 1.5 1.5 1.5 1.5-.6716 1.5-1.5-.6716-1.5-1.5-1.5z"/><path clip-rule="evenodd" d="m17 3c-2.163 0-4.0384.54246-5.6691 1.04422l-.3045.09391c-1.54056.47559-2.79182.86187-4.02639.86187-.88584 0-1.67721-.09417-2.34349-.22219l-.03145-.00604c-.4881-.09379-.89803-.17257-1.21659-.21468-.27948-.03694-.69363-.08085-1.07236.05242-.19849.06985-.41319.16948-.61617.33718-.20299.1677-.34134.35974-.44739.54149-.19479.33384-.23534.71222-.25332.98282-.01926.28988-.019248.65859-.01923 1.08406l-.00001 10.79564c-.00006.1971-.000134.4312.11895.7609.05914.1638.15653.3218.21276.4081s.16155.2392.2875.3594c.08143.0777.17429.1599.28548.2329.10905.0715.20837.115.25172.134l.00789.0035c.81975.3616 2.29017.7505 4.83571.7505 2.16297 0 4.03839-.5425 5.66909-1.0442l.3045-.0939c1.5406-.4756 2.7918-.8619 4.0264-.8619.8858 0 1.6772.0942 2.3435.2222l.0315.006c.4881.0938.898.1726 1.2165.2147.2795.0369.6937.0809 1.0724-.0524.1985-.0699.4132-.1695.6162-.3372s.3413-.3597.4473-.5415c.1948-.3338.2354-.7122.2534-.9828.0192-.2899.0192-.6586.0192-1.084v-10.79569c.0001-.19715.0001-.43125-.1189-.76093-.0592-.16374-.1566-.32182-.2128-.40808-.0562-.08625-.1615-.23916-.2875-.35936-.0814-.07772-.1743-.15993-.2855-.2329-.109-.07156-.2084-.11509-.2517-.13408l-.0079-.00346c-.8197-.36159-2.2902-.7505-4.8357-.7505zm2 6c0-.55228-.4477-1-1-1s-1 .44772-1 1v4c0 .5523.4477 1 1 1s1-.4477 1-1zm-10.5 3c0-1.933 1.567-3.5 3.5-3.5s3.5 1.567 3.5 3.5-1.567 3.5-3.5 3.5-3.5-1.567-3.5-3.5zm-2.5-2c.55228 0 1 .4477 1 1v4c0 .5523-.44772 1-1 1s-1-.4477-1-1v-4c0-.5523.44772-1 1-1z" fill-rule="evenodd"/></g></svg>

<svg width="24" height="24" viewBox="0 0 24 24" fill="none" xmlns="http://www.w3.org/2000/svg">
<path d="M12 10.5C11.1716 10.5 10.5 11.1716 10.5 12C10.5 12.8284 11.1716 13.5 12 13.5C12.8284 13.5 13.5 12.8284 13.5 12C13.5 11.1716 12.8284 10.5 12 10.5Z" fill="#801ED7"/>
<path fill-rule="evenodd" clip-rule="evenodd" d="M17 3C14.837 3 12.9616 3.54246 11.3309 4.04422L11.0264 4.13813C9.48584 4.61372 8.23458 5 7.00001 5C6.11417 5 5.3228 4.90583 4.65652 4.77781L4.62507 4.77177C4.13697 4.67798 3.72704 4.5992 3.40848 4.55709C3.129 4.52015 2.71485 4.47624 2.33612 4.60951C2.13763 4.67936 1.92293 4.77899 1.71995 4.94669C1.51696 5.11439 1.37861 5.30643 1.27256 5.48818C1.07777 5.82202 1.03722 6.2004 1.01924 6.471C0.99998 6.76088 0.999992 7.12959 1.00001 7.55506L1 18.3507C0.99994 18.5478 0.999866 18.7819 1.11895 19.1116C1.17809 19.2754 1.27548 19.4334 1.33171 19.5197C1.38794 19.606 1.49326 19.7589 1.61921 19.8791C1.70064 19.9568 1.7935 20.039 1.90469 20.112C2.01374 20.1835 2.11306 20.227 2.15641 20.246L2.1643 20.2495C2.98405 20.6111 4.45447 21 7.00001 21C9.16298 21 11.0384 20.4575 12.6691 19.9558L12.9736 19.8619C14.5142 19.3863 15.7654 19 17 19C17.8858 19 18.6772 19.0942 19.3435 19.2222L19.375 19.2282C19.8631 19.322 20.273 19.4008 20.5915 19.4429C20.871 19.4798 21.2852 19.5238 21.6639 19.3905C21.8624 19.3206 22.0771 19.221 22.2801 19.0533C22.4831 18.8856 22.6214 18.6936 22.7274 18.5118C22.9222 18.178 22.9628 17.7996 22.9808 17.529C23 17.2391 23 16.8704 23 16.445L23 5.64931C23.0001 5.45216 23.0001 5.21806 22.8811 4.88838C22.8219 4.72464 22.7245 4.56656 22.6683 4.4803C22.6121 4.39405 22.5068 4.24114 22.3808 4.12094C22.2994 4.04322 22.2065 3.96101 22.0953 3.88804C21.9863 3.81648 21.8869 3.77295 21.8436 3.75396L21.8357 3.7505C21.016 3.38891 19.5455 3 17 3ZM19 9C19 8.44772 18.5523 8 18 8C17.4477 8 17 8.44772 17 9V13C17 13.5523 17.4477 14 18 14C18.5523 14 19 13.5523 19 13V9ZM8.5 12C8.5 10.067 10.067 8.5 12 8.5C13.933 8.5 15.5 10.067 15.5 12C15.5 13.933 13.933 15.5 12 15.5C10.067 15.5 8.5 13.933 8.5 12ZM6 10C6.55228 10 7 10.4477 7 11V15C7 15.5523 6.55228 16 6 16C5.44772 16 5 15.5523 5 15V11C5 10.4477 5.44772 10 6 10Z" fill="#801ED7"/>
</svg>
